X: 18452
T: Hurricane, The
R: reel
M: 4/4
K: Amajor
ac'e'c' aecA|GAEA GBBg|ac'e'c' aecA|defg aAAe|
ac'e'c' aecA|GAEA GBBd|(3cBA (3BAG A.a.g.f.|ecdB cAA||
fgaf ^efcf|efge ^deBe|fgaf ^efcf|gabg affc|
fgaf ^efcf|efge ^deBe|aefd ceAa|ecdB cAA||

